docs/img/hyperlink.svg

<?xml version="1.0" encoding="UTF-8" standalone="no"?>
<svg width="24px" height="24px" viewBox="0 0 24 24" version="1.1" xmlns="http://www.w3.org/2000/svg" xmlns:xlink="http://www.w3.org/1999/xlink">
    <defs></defs>
    <g id="Page-1" stroke="none" stroke-width="1" fill="none" fill-rule="evenodd">
        <g id="hyperlink" fill="#FF5231">
            <path d="M23.5548327,6.22263035 L17.7774163,0.445167315 C17.2460545,-0.0861478599 16.3834086,-0.0861478599 15.8520934,0.445167315 L10.0747237,6.22263035 C9.5419144,6.75394553 9.5419144,7.61659144 10.0747237,8.14940078 L11.0366381,9.11131518 L16.8140545,3.33389883 L20.6661479,7.18599222 L14.8887315,12.9634086 L15.8520934,13.9267704 C16.3834086,14.4581323 17.2460545,14.4581323 17.7774163,13.9267704 L23.554786,8.14940078 C24.0861479,7.61659144 24.0861479,6.75389883 23.5548327,6.22263035 L23.5548327,6.22263035 Z M12.9634086,14.8886848 L7.18599222,20.6661479 L3.33389883,16.8140545 L9.11126848,11.0366381 L8.14790661,10.0732763 C7.61659144,9.5419144 6.75394553,9.5419144 6.22263035,10.0732763 L0.445167315,15.8506459 C-0.0861478599,16.3834086 -0.0861478599,17.2461012 0.445167315,17.7774163 L6.22258366,23.5548327 C6.75389883,24.0861479 7.61654475,24.0861479 8.14785992,23.5548327 L13.9252763,17.7774163 C14.4580389,17.2461012 14.4580389,16.3834553 13.9252763,15.8506459 L12.9634086,14.8886848 L12.9634086,14.8886848 Z M8.14790661,15.8506459 C8.68071595,16.3834086 9.5418677,16.3834086 10.0747237,15.8506459 L15.8520934,10.0732763 C16.3834086,9.5419144 16.3834086,8.68071595 15.8520934,8.14940078 C15.3193307,7.61663813 14.4581323,7.61663813 13.925323,8.14940078 L8.14790661,13.9267704 C7.61659144,14.4581323 7.61659144,15.3193307 8.14790661,15.8506459 L8.14790661,15.8506459 Z" id="Shape"></path>
        </g>
    </g>
</svg>

<svg xmlns="http://www.w3.org/2000/svg" width="24" height="24" viewBox="0 0 24 24"><path fill="#ff5231" fill-rule="evenodd" d="M23.555 6.223L17.777.445a1.362 1.362 0 00-1.925 0l-5.777 5.778a1.361 1.361 0 000 1.926l.962.962 5.777-5.777 3.852 3.852-5.777 5.777.963.964a1.362 1.362 0 001.925 0l5.778-5.778a1.364 1.364 0 000-1.926zm-10.592 8.666l-5.777 5.777-3.852-3.852 5.777-5.777-.963-.964a1.362 1.362 0 00-1.925 0L.445 15.851a1.364 1.364 0 000 1.926l5.778 5.778a1.362 1.362 0 001.925 0l5.777-5.778a1.361 1.361 0 000-1.926l-.962-.962zm-4.815.962a1.361 1.361 0 001.927 0l5.777-5.778a1.36 1.36 0 10-1.927-1.924l-5.777 5.778a1.36 1.36 0 000 1.924z"/></svg>
